X:075 
T:How's the Wife?* (hornpipe) 
S:Grier MS
F:file ID: cre.4/075hows_w
B:CRE4.211 (gan ainm)
Q:150
L:1/8
M:4/4
R:hornpipe
K:G
EF|GABc dBgd|BdeB dBG2|EAAB cBAF|DFAF GFED|
GABc dBgd|BdeB dB G2|EAAB cBAF|DFAF G2:|
|:ef|g2af gbag|efge c2 Bc|Aaag abag|fgaf d2 ef|
[1 g2af gbag|efge c2 (3ABc|dBGB cAFA|G2 B2 G2:|
[2 gfgf gbag|efge c2 (3ABc|dBGB cAFA|G2 gf Hg4|]

%%%

